X: 18
T: Sligo Maid, The
Z: Owen H
S: https://thesession.org/tunes/399#setting47783
R: reel
M: 4/4
L: 1/8
K: Ador
|:A2BA (3Bcd ef|gedB AGEF|G2BG DGBG|DEGA BGdB|
A2BA (3Bcd ef|gedB AGEG|B3G A2GE|DEGA BAA2:|
|:eaag a2ga|bgab gedg|eggf g2ge|dega bgag|
eaag a2ga|bgab gedg|eg~g2 edBc|dBgB BAA2:|

